X:1
T:Sacred Fountain
T:William Howard Doane
T:Sacred Fountain
T:Public Domain
T:Public Domain
T:Public Domain
C:William Howard Doane
Z:Public Domain
%%score ( 1 2 ) ( 3 4 )
L:1/8
M:4/4
K:Eb
V:1 treble 
V:2 treble 
V:3 bass 
V:4 bass 
V:1
 E>[DF] [EG]2 [EG]2 [EG]>[DF] | [EG]>[FA] [Ac]4 [GB]2- | [GB]2 [EG]2 [EG]2 [EG]>[DF] | %3
w: 1.~Thou whose hand did lead Thy|en peo- ple Through|* the de- sert on|
w: 2.~Give us wa- ter from the|red fount- ain, While|* we jour- ney in|
w: 3.~Gen- tle Sav- ior, Thou wilt|ver leave us, Still|* from dan- ger and|
w: 4.~Though we pass the dark and|ing ri- ver, Thou|* wilt bear us safe-|
 E>[EG] [DF]2 [DB]2 [DB]2 | E>[DF] [EG]2 [EG]2 [EG]>[DF] | [EG]>[FA] [Ac]4 [GB]2- | %6
w: their pil- grim way, In|mer- cy grant us now Thy|ing, Je- sus help|
w: a thirst- y land; Strong|Thee no earth- ly foe can|us, Thou our rock|
w: from storm de- fend, Sweet|pro- mise to Thy faith- ful|ren, Thou wilt guide|
w: ly to the shore; We|praise Thee in the vales of|den, With the saints|
 [GB]2 [EG]2 [EG]2 [EG]>[DF] | E>[DF] [EG]2 [DF]2 E2- | E2 || %9
w: * us all to watch|and pray. * * *||
w: * on which we firm-|ly stand. * * *||
w: * and keep them to|the end. * * *||
w: * and an- gels ev-|er- more. * * *||
"^Refrain" [Ec]2 [Ec]2 [Ec]>[E=B] [Ec]>[Ad] | [Ge]2 [GB]2 [EG]2 E2 | [Ec]2 [EB]2 [FA]2 [EG]2 | %12
w: |||
w: |||
w: |||
w: |||
 [DF]2 [CE]2 [DB]2 (E>[DF]) | [EG]2 [EG]2 [EG]>[DF] [EG]>[FA] | [Ac]4 [GB]4 | %15
w: |||
w: |||
w: |||
w: |||
 [EG]2 [EG]2 [EG]>[DF] E>[DF] | [EG]2 [DF]2 E4- | E4 z4 |] %18
w: |||
w: |||
w: |||
w: |||
V:2
 E3/2 x13/2 | x8 | x8 | E3/2 x13/2 | E3/2 x13/2 | x8 | x8 | E3/2 x3 E2- x3/2 | E2 || x8 | x6 E2 | %11
w: chos-|||Thy|bless-|||||||
w: sac-|||in|harm|||||||
w: ne-|||the|child-|||||||
w: roll-|||shall|E-|||||||
 x8 | x6 E3/2 x/ | x8 | x8 | x6 E3/2 x/ | x4 E4- | E4 x4 |] %18
w: |||||||
w: |||||||
w: |||||||
w: |||||||
V:3
 [E,G,]>[E,A,] [E,B,]2 [E,B,]2 [E,B,]>[E,B,] | [E,B,]>[E,B,] [A,,E]4 [E,E]2- | %2
w: ~ ~ ~ ~ ~ ~|~ ~ ~ ~|
 [E,E]2 [E,B,]2 [E,B,]2 [E,B,]>[E,A,] | [E,G,]>[E,B,] [B,,B,]2 [B,,F,]2 [B,,F,]2 | %4
w: * ~ ~ ~ ~|~ ~ ~ ~ ~|
 [E,G,]>[E,A,] [E,B,]2 [E,B,]2 [E,B,]>[E,B,] | [E,B,]>[E,B,] [A,,E]4 [E,E]2- | %6
w: ~ ~ ~ ~ ~ ~|~ ~ ~ ~|
 [E,E]2 [E,E]2 [E,B,]2 [B,,B,]>[B,,A,] | [B,,G,]>[B,,A,] [B,,B,]2 [B,,A,]2 [E,G,]2- | [E,G,]2 || %9
w: * ~ ~ ~ ~|~ ~ ~ ~ ~||
 A,2 A,2 A,>A, A,>[F,B,] | [E,B,]2 [E,B,]2 [E,B,]2 [E,G,]2 | A,2 [G,B,]2 [D,B,]2 [E,B,]2 | %12
w: Fa- ther, Thou art pure and|our hearts Thy tem-|ple be, O, make|
 [F,B,]2 [F,=A,]2 [B,,F,B,]2 ([E,G,]>_A,) | [E,B,]2 [E,B,]2 [E,B,]>[E,B,] [E,B,]>[E,B,] | %14
w: hum- ble, meek and *|low- ly, Poor in spir- it,|
 [A,,E]4 [E,E]4 | [B,,B,]2 [B,,B,]2 [B,,B,]>[B,,B,] [B,,G,]>[B,,A,] | [B,,B,]2 [B,,A,]2 [E,G,]4- | %17
w: Sav- ior,|more like Thee. * * *||
 [E,G,]4 z4 |] %18
w: |
V:4
 x8 | x8 | x8 | x8 | x8 | x8 | x8 | x8 | x2 || A,2 A,2 A,>A, A,3/2 x/ | x8 | A,2 x6 | x8 | x8 | %14
w: |||||||||ho- ly, ho- ly, May||us|||
 x8 | x8 | x8 | x8 |] %18
w: ||||

